2019/02/basketball-predictions/assets/penn.svg

<svg viewBox="0 0 133.96 78.79" xmlns="http://www.w3.org/2000/svg"><g fill="#3e54a3"><path d="m33.54 28.73a.11.11 0 0 0 0-.22.11.11 0 0 0 0 .22z"/><path d="m73.67 21.37 7.59-10.74s-2.11-1.87-8.65-1.87h-29.07v7.83s7.7 0 7.7 6.3v29.54l14.37-19.49v-12.51h5.39a4.34 4.34 0 0 1 2.67.94z"/><path d="m85.32 13-9.16 11.48c2.93 13.7-9.14 11-9.14 11l-15.53 18.73s0 9.3-7.94 8.17v7.62h29.77v-7.71s-7.75.47-7.75-5.77v-13h7.65s21.17-.29 16.54-22.4c0-.04-1.98-6.85-4.44-8.12z"/></g></svg>

<svg id="Layer_1" data-name="Layer 1" xmlns="http://www.w3.org/2000/svg" viewBox="0 0 133.96 78.79"><defs><style>.cls-1{fill:#3e54a3;}</style></defs><title>penn</title><g id="Layer_1-2" data-name="Layer 1"><path class="cls-1" d="M33.54,28.73a.11.11,0,0,0,0-.22.11.11,0,0,0,0,.22Z"/><path class="cls-1" d="M73.67,21.37l7.59-10.74s-2.11-1.87-8.65-1.87H43.54v7.83s7.7,0,7.7,6.3V52.43L65.61,32.94V20.43H71A4.34,4.34,0,0,1,73.67,21.37Z"/><path class="cls-1" d="M85.32,13,76.16,24.48c2.93,13.7-9.14,11-9.14,11L51.49,54.21s0,9.3-7.94,8.17V70H73.32V62.29s-7.75.47-7.75-5.77v-13h7.65s21.17-.29,16.54-22.4C89.76,21.08,87.78,14.27,85.32,13Z"/></g></svg>
